X: 973
T: All The Way From Virginia
R: reel
M: 4/4
K: Gmajor
|:E|G2BG ABcA|BGG2 AFF2|EBBA B2ge|dBAc BGAF|
G2BG ABcA|BGG2 AFF2|EBBA B2ge|dBAc BGG||
e||g2eg a2ga|bagb a2gf|eggf gage|dBAc BGAe|
g2eg a2ga|bagb a2gf|eggf gage|dBAc BGG:|

